public/pieces/pixel/wK.svg

<svg shape-rendering="crispEdges" viewBox="0 -.5 16 16" xmlns="http://www.w3.org/2000/svg"><path d="m7 1h2m-3 1h1m2 0h1m-4 1h1m2 0h1m-7 1h3m1 0h2m1 0h3m-11 1h1m3 0h1m2 0h1m3 0h1m-12 1h1m2 0h1m1 0h2m1 0h1m2 0h1m-12 1h1m3 0h1m2 0h1m3 0h1m-12 1h1m1 0h1m6 0h1m1 0h1m-11 1h1m1 0h2m2 0h2m1 0h1m-10 1h1m8 0h1m-9 1h1m6 0h1m-8 1h8m-9 1h1m8 0h1m-10 1h10" stroke="#000"/><path d="m7 2h1m-5 3h1" stroke="#fdfdfd"/><path d="m8 2h1m-1 1h1m3 2h1m-1 1h1m-1 1h1m-1 1h1m-2 1h1m-2 1h2m-3 1h2m-2 2h3" stroke="#a7a7a7"/><path d="m7 3h1m-5 3h1m-1 1h1m-1 1h1m0 1h1m-1 1h2m-1 1h1m-2 2h2" stroke="#e1e1e1"/><path d="m4 5h2m4 0h2m-6 1h1m2 0h1m-3 1h2m-2 1h2m-2 1h2m-3 1h4m-4 1h3m-3 2h3" stroke="#c1c1c1"/></svg>

<svg xmlns="http://www.w3.org/2000/svg" viewBox="0 -0.5 16 16" shape-rendering="crispEdges">
<metadata>Made with Pixels to Svg https://codepen.io/shshaw/pen/XbxvNj</metadata>
<path stroke="#000000" d="M7 1h2M6 2h1M9 2h1M6 3h1M9 3h1M3 4h3M7 4h2M10 4h3M2 5h1M6 5h1M9 5h1M13 5h1M2 6h1M5 6h1M7 6h2M10 6h1M13 6h1M2 7h1M6 7h1M9 7h1M13 7h1M2 8h1M4 8h1M11 8h1M13 8h1M3 9h1M5 9h2M9 9h2M12 9h1M3 10h1M12 10h1M4 11h1M11 11h1M4 12h8M3 13h1M12 13h1M3 14h10" />
<path stroke="#fdfdfd" d="M7 2h1M3 5h1" />
<path stroke="#a7a7a7" d="M8 2h1M8 3h1M12 5h1M12 6h1M12 7h1M12 8h1M11 9h1M10 10h2M9 11h2M9 13h3" />
<path stroke="#e1e1e1" d="M7 3h1M3 6h1M3 7h1M3 8h1M4 9h1M4 10h2M5 11h1M4 13h2" />
<path stroke="#c1c1c1" d="M4 5h2M10 5h2M6 6h1M9 6h1M7 7h2M7 8h2M7 9h2M6 10h4M6 11h3M6 13h3" />
</svg>
